X:1
T:Title
%%score 1 2 3
L:1/8
Q:1/4=180
M:4/4
K:Bb
V:1 treble nm="Grand Piano"
V:2 bass nm="Grand Piano, Melody"
V:3 bass nm="Grand Piano"
V:1
 z4 B4 | c4 d2 d2 | f4 f2 B2 | d4 d2 c2 | B4 f4 | d4 d2 d2 | B4 B2 c2 | d4 d2 c2 | B8 | z4 d4 | %10
 c4 c2 c2 | B4 B2 d2 | c4 B2 c2 | d4 d4 | f4 f2 f2 | f4 d2 c2 | B4 B2 d2 | c4 B2 c2 | %18
 d4 [dg]2 [cf]2 | B8 |] %20
V:2
 z4 B,2 G,2 | F,4 G,2 B,2 | C4 F,2 G,2 | B,4 B,2[K:treble] C2 | D4 C2 B,2 | %5
 G,2[K:bass] F,2 G,2 B,2 | G,2 F,2 D,2 F,2 | B,4 B,2 C2 | B,8 | z4[K:treble] B,2 D2 | F4 F2 F2 | %11
 F2 D2 D2 D2 | F4 D2 C2 | B,4 B,4 | C4 C2 C2 | C2 E2 D2 C2 | B,2 G,2 G,2 B,2 | G,2 F,2 D,2 F,2 | %18
 B,4 B,2 C2 | [B,D]8 |] %20
V:3
 z4 B,,4 | F,4 G,2 G,2 | F,4 F,2 D,2 | B,,4 B,,2 F,2 | D,4 F,4 | B,4 B,2 B,2 | G,2 F,2 B,2 F,2 | %7
 D,4 D,2 F,2 | B,,8 | z4 B,4 | F,4 F,2 F,2 | B,4 G,2 G,2 | F,4 G,2 F,2 | B,,4 B,4 | F,4 F,2 F,2 | %15
 C,4 D,2 F,2 | B,,4 B,,2 B,,2 | C,4 D,2 F,2 | B,4 B,2 F,2 | B,,8 |] %20

